Obsidian-SemiLight/actions/22s/snap.svg

<svg viewBox="0 0 22 22" xmlns="http://www.w3.org/2000/svg"><path d="m11 3a7 7 0 0 0 -7 7v4h3v-4a4 4 0 0 1 4-4 4 4 0 0 1 4 4v4h3v-4a7 7 0 0 0 -7-7zm-7 12v3h3v-3z" fill="#4d4d4d"/><path d="m14 15v4h5v-4zm1 1h3v2h-3z" fill="#3daee9"/></svg>

<svg xmlns="http://www.w3.org/2000/svg" viewBox="0 0 22 22">
  <defs id="defs3051">
    <style type="text/css" id="current-color-scheme">
      .ColorScheme-Text {
        color:#4d4d4d;
      }
      .ColorScheme-Highlight {
        color:#3daee9;
      }
      </style>
  </defs>
 <path 
     style="fill:currentColor;fill-opacity:1;stroke:none" 
     d="M 11 3 A 7 7 0 0 0 4 10 L 4 14 L 7 14 L 7 10 A 4 4 0 0 1 11 6 A 4 4 0 0 1 15 10 L 15 14 L 18 14 L 18 10 A 7 7 0 0 0 11 3 z M 4 15 L 4 18 L 7 18 L 7 15 L 4 15 z "
     class="ColorScheme-Text"
     />
 <path 
     style="fill:currentColor;fill-opacity:1;stroke:none" 
     d="M 14 15 L 14 19 L 19 19 L 19 15 L 14 15 z M 15 16 L 18 16 L 18 18 L 15 18 L 15 16 z "
     class="ColorScheme-Highlight"
     />
</svg>
